flaticon/coffee-shop/coffee-shop.svg

<svg xmlns="http://www.w3.org/2000/svg" width="32" height="32" viewBox="0 0 24 24">
    <path d="M 22.34375 0.621094 L 1.613281 0.621094 C 0.703125 0.621094 0 1.324219 0 2.234375 L 0 5.585938 C 0 6.164062 0.25 6.746094 0.660156 7.117188 C 0.839844 7.261719 1.039062 7.382812 1.242188 7.472656 L 1.242188 22.964844 C 1.242188 23.214844 1.40625 23.378906 1.65625 23.378906 L 22.34375 23.378906 C 22.59375 23.378906 22.757812 23.214844 22.757812 22.964844 L 22.757812 7.472656 C 23.484375 7.125 24 6.351562 24 5.503906 L 24 2.234375 C 24 1.324219 23.296875 0.621094 22.34375 0.621094 Z M 17.378906 1.449219 L 19.820312 1.449219 L 19.820312 5.585938 C 19.820312 5.667969 19.828125 5.753906 19.839844 5.835938 C 19.730469 6.414062 19.238281 6.828125 18.621094 6.828125 C 17.917969 6.828125 17.378906 6.289062 17.378906 5.585938 Z M 14.070312 1.449219 L 16.550781 1.449219 L 16.550781 5.585938 C 16.550781 6.289062 16.015625 6.828125 15.308594 6.828125 C 14.605469 6.828125 14.070312 6.289062 14.070312 5.585938 Z M 10.757812 1.449219 L 13.242188 1.449219 L 13.242188 5.585938 C 13.242188 6.289062 12.703125 6.828125 12 6.828125 C 11.296875 6.828125 10.757812 6.289062 10.757812 5.585938 Z M 7.449219 1.449219 L 9.929688 1.449219 L 9.929688 5.585938 C 9.929688 6.289062 9.394531 6.828125 8.691406 6.828125 C 7.984375 6.828125 7.449219 6.289062 7.449219 5.585938 Z M 4.136719 1.449219 L 6.621094 1.449219 L 6.621094 5.585938 C 6.621094 6.289062 6.082031 6.828125 5.378906 6.828125 C 4.675781 6.828125 4.136719 6.289062 4.136719 5.585938 Z M 0.828125 5.585938 L 0.828125 2.234375 C 0.828125 1.78125 1.160156 1.449219 1.613281 1.449219 L 3.308594 1.449219 L 3.308594 5.503906 C 3.308594 6.121094 2.875 6.667969 2.3125 6.804688 C 2.25 6.816406 2.1875 6.824219 2.125 6.828125 C 1.8125 6.816406 1.472656 6.726562 1.242188 6.496094 C 0.992188 6.289062 0.828125 5.917969 0.828125 5.585938 Z M 2.277344 7.65625 C 2.441406 7.636719 2.597656 7.59375 2.75 7.535156 C 3.136719 7.398438 3.480469 7.152344 3.71875 6.832031 C 4.09375 7.335938 4.691406 7.65625 5.378906 7.65625 C 6.0625 7.65625 6.660156 7.339844 7.035156 6.839844 C 7.410156 7.339844 8.007812 7.65625 8.691406 7.65625 C 9.375 7.65625 9.96875 7.339844 10.34375 6.839844 C 10.71875 7.339844 11.316406 7.65625 12 7.65625 C 12.683594 7.65625 13.28125 7.339844 13.65625 6.839844 C 14.03125 7.339844 14.625 7.65625 15.308594 7.65625 C 15.992188 7.65625 16.589844 7.339844 16.964844 6.839844 C 17.339844 7.339844 17.9375 7.65625 18.621094 7.65625 C 19.300781 7.65625 19.898438 7.339844 20.273438 6.84375 C 20.347656 6.945312 20.433594 7.035156 20.523438 7.117188 C 20.589844 7.171875 20.660156 7.21875 20.730469 7.265625 C 21.023438 7.472656 21.371094 7.609375 21.742188 7.644531 C 21.746094 7.644531 21.746094 7.644531 21.75 7.644531 C 21.777344 7.648438 21.800781 7.652344 21.828125 7.652344 C 21.863281 7.652344 21.894531 7.65625 21.929688 7.65625 L 21.929688 9.308594 L 2.070312 9.308594 L 2.070312 7.65625 C 2.152344 7.65625 2.191406 7.65625 2.277344 7.65625 Z M 4.136719 22.550781 L 4.136719 11.792969 L 9.101562 11.792969 L 9.101562 17.585938 L 8.277344 17.585938 C 8.027344 17.585938 7.863281 17.75 7.863281 18 C 7.863281 18.25 8.027344 18.414062 8.277344 18.414062 L 9.101562 18.414062 L 9.101562 22.550781 Z M 21.929688 22.550781 L 9.929688 22.550781 L 9.929688 11.378906 C 9.929688 11.132812 9.765625 10.964844 9.515625 10.964844 L 3.722656 10.964844 C 3.476562 10.964844 3.308594 11.132812 3.308594 11.378906 L 3.308594 22.550781 L 2.070312 22.550781 L 2.070312 10.136719 L 21.929688 10.136719 Z M 23.171875 5.503906 C 23.171875 6.113281 22.796875 6.601562 22.292969 6.773438 C 22.269531 6.773438 22.246094 6.777344 22.21875 6.785156 C 22.160156 6.816406 22.078125 6.824219 22.003906 6.828125 C 21.6875 6.820312 21.339844 6.730469 21.101562 6.496094 C 20.855469 6.289062 20.691406 5.917969 20.691406 5.585938 L 20.691406 1.449219 L 22.386719 1.449219 C 22.839844 1.449219 23.171875 1.820312 23.171875 2.234375 Z M 23.171875 5.503906"/>
    <path d="M11.585938 20.898438L20.691406 20.898438C20.9375 20.898438 21.101562 20.730469 21.101562 20.484375L21.101562 11.378906C21.101562 11.132812 20.9375 10.964844 20.691406 10.964844L11.585938 10.964844C11.335938 10.964844 11.171875 11.132812 11.171875 11.378906L11.171875 20.484375C11.171875 20.730469 11.339844 20.898438 11.585938 20.898438zM17.378906 18.828125C17.628906 18.828125 17.792969 18.660156 17.792969 18.414062 17.792969 18.164062 17.628906 18 17.378906 18L14.898438 18C14.648438 18 14.484375 18.164062 14.484375 18.414062 14.484375 18.660156 14.648438 18.828125 14.898438 18.828125L15.722656 18.828125 15.722656 20.070312 14.058594 20.070312C13.976562 18.59375 13.460938 17.363281 12.703125 16.757812 13.679688 15.9375 14.398438 14.085938 14.476562 11.792969L17.800781 11.792969C17.875 14.085938 18.558594 15.9375 19.574219 16.757812 18.816406 17.363281 18.300781 18.59375 18.21875 20.070312L16.550781 20.070312 16.550781 18.828125zM20.277344 20.070312L19.035156 20.070312C19.160156 18.660156 19.695312 17.628906 20.277344 17.296875zM20.277344 11.792969L20.277344 16.21875C19.449219 15.765625 18.703125 14.109375 18.621094 11.792969zM12 11.792969L13.65625 11.792969C13.574219 14.109375 12.785156 15.765625 12 16.21875zM12 17.296875C12.621094 17.628906 13.160156 18.660156 13.242188 20.070312L12 20.070312zM8.277344 15.515625L8.277344 13.035156C8.277344 12.785156 8.109375 12.621094 7.863281 12.621094L5.378906 12.621094C5.132812 12.621094 4.964844 12.785156 4.964844 13.035156L4.964844 15.515625C4.964844 15.765625 5.132812 15.929688 5.378906 15.929688L7.863281 15.929688C8.109375 15.929688 8.277344 15.765625 8.277344 15.515625zM7.449219 15.101562L5.792969 15.101562 5.792969 13.449219 7.449219 13.449219zM7.449219 15.101562"/>
</svg>

<svg xmlns="http://www.w3.org/2000/svg" width="32" height="32" viewBox="0 0 24 24">
    <path d="M22.344.621H1.614A1.59 1.59 0 0 0 0 2.234v3.352c0 .578.25 1.16.66 1.531.18.145.38.266.582.356v15.492c0 .25.164.414.414.414h20.688c.25 0 .414-.164.414-.414V7.473A2.215 2.215 0 0 0 24 5.503V2.235c0-.91-.703-1.613-1.656-1.613zm-4.965.828h2.441v4.137c0 .082.008.168.02.25-.11.578-.602.992-1.219.992-.703 0-1.242-.539-1.242-1.242zm-3.309 0h2.48v4.137c0 .703-.534 1.242-1.241 1.242-.704 0-1.239-.539-1.239-1.242zm-3.312 0h2.484v4.137c0 .703-.539 1.242-1.242 1.242s-1.242-.539-1.242-1.242zm-3.309 0h2.48v4.137c0 .703-.534 1.242-1.238 1.242-.707 0-1.242-.539-1.242-1.242zm-3.312 0H6.62v4.137c0 .703-.539 1.242-1.242 1.242S4.137 6.29 4.137 5.586zM.828 5.586V2.234c0-.453.332-.785.785-.785H3.31v4.055c0 .617-.434 1.164-.997 1.3-.062.012-.124.02-.187.024-.313-.012-.652-.101-.883-.332a1.245 1.245 0 0 1-.414-.91zm1.45 2.07c.163-.02.32-.062.472-.12a2.07 2.07 0 0 0 .969-.704 2.05 2.05 0 0 0 1.66.824c.684 0 1.281-.316 1.656-.816.375.5.973.816 1.656.816.684 0 1.278-.316 1.653-.816.375.5.972.816 1.656.816.684 0 1.281-.316 1.656-.816.375.5.969.816 1.653.816.683 0 1.28-.316 1.656-.816.375.5.973.816 1.656.816.68 0 1.277-.316 1.652-.812.075.101.16.191.25.273.067.055.137.102.207.149a2.1 2.1 0 0 0 1.012.379h.008c.027.003.05.007.078.007.035 0 .067.004.102.004V9.31H2.07V7.656h.207zm1.859 14.895V11.793h4.965v5.793h-.825c-.25 0-.414.164-.414.414 0 .25.164.414.414.414h.825v4.137zm17.793 0h-12V11.379c0-.246-.164-.414-.414-.414H3.723a.394.394 0 0 0-.414.414V22.55H2.07V10.137h19.86zm1.242-17.047c0 .61-.375 1.098-.879 1.27a.265.265 0 0 0-.074.011.54.54 0 0 1-.215.043c-.317-.008-.664-.098-.902-.332a1.256 1.256 0 0 1-.41-.91V1.449h1.695c.453 0 .785.371.785.785zm0 0"/>
    <path d="M11.586 20.898h9.105c.247 0 .41-.168.41-.414V11.38c0-.246-.163-.414-.41-.414h-9.105c-.25 0-.414.168-.414.414v9.105c0 .246.168.414.414.414zm5.793-2.07c.25 0 .414-.168.414-.414 0-.25-.164-.414-.414-.414h-2.48c-.25 0-.415.164-.415.414 0 .246.164.414.414.414h.825v1.242h-1.664c-.082-1.476-.598-2.707-1.356-3.312.977-.82 1.695-2.672 1.774-4.965H17.8c.074 2.293.758 4.145 1.773 4.965-.758.605-1.273 1.836-1.355 3.312H16.55v-1.242zm2.898 1.242h-1.242c.125-1.41.66-2.441 1.242-2.773zm0-8.277v4.426c-.828-.453-1.574-2.11-1.656-4.426zm-8.277 0h1.656c-.082 2.316-.87 3.973-1.656 4.426zm0 5.504c.621.332 1.16 1.363 1.242 2.773H12zm0 0M8.277 15.516v-2.48c0-.25-.168-.415-.414-.415H5.38c-.246 0-.414.164-.414.414v2.48c0 .25.168.415.414.415h2.484c.246 0 .414-.164.414-.414zm-.828-.414H5.793v-1.653h1.656zm0 0"/>
</svg>
